X:1
T:Title
%%score { 1 | 2 }
L:1/8
Q:1/4=200
M:4/2
K:C
V:1 treble nm="Grand Piano"
V:2 bass 
V:1
 [Ec]6 [EG]2 [FA]4 [EG]4 | [Ec]4 E4 G8 | A4 G4 [FB]4 [Ec]4 | [Dd]4 [DA]4 [DB]8 | %4
w: J.~E.~Groome * * *||||
 [Ec]6 [Ec]2 [Ge]4 [Gc]4 | A4 A4 c8 | E6 [CF]2 [B,DG]4 [CGc]4 | [EGA]4 [DFB]4 [CEc]8 |] %8
w: ||||
V:2
 [C,G,]6 [C,C]2 [C,C]4 [C,C]4 | [C,G,]4 [A,C]4 [G,B,D]8 | [F,CF]4 [E,C]4 [D,G,]4 [C,G,]4 | %3
 [B,,G,]4 [D,^F,]4 [G,,G,]8 | [C,G,]6 [C,G,]2 [C,C]4 [E,C]4 | [A,CE]4 [F,CF]4 [CEG]8 | %6
 C6 A,2[K:bass] G,4 E,4 | F,4 G,4 C,8 |] %8

